actions/24/labplot-zoom-out-y.svg

<?xml version="1.0" encoding="UTF-8" standalone="no"?>
<svg
   width="24"
   height="24"
   version="1.1"
   id="svg9"
   sodipodi:docname="zoom-out-y.svg"
   inkscape:version="1.1.2 (0a00cf5339, 2022-02-04)"
   xmlns:inkscape="http://www.inkscape.org/namespaces/inkscape"
   xmlns:sodipodi="http://sodipodi.sourceforge.net/DTD/sodipodi-0.dtd"
   xmlns="http://www.w3.org/2000/svg"
   xmlns:svg="http://www.w3.org/2000/svg">
  <sodipodi:namedview
     id="namedview11"
     pagecolor="#ffffff"
     bordercolor="#666666"
     borderopacity="1.0"
     inkscape:pageshadow="2"
     inkscape:pageopacity="0.0"
     inkscape:pagecheckerboard="0"
     showgrid="false"
     inkscape:zoom="34.458333"
     inkscape:cx="11.956469"
     inkscape:cy="16.643289"
     inkscape:window-width="954"
     inkscape:window-height="519"
     inkscape:window-x="961"
     inkscape:window-y="556"
     inkscape:window-maximized="1"
     inkscape:current-layer="g7" />
  <defs
     id="defs3">
    <style
       id="current-color-scheme"
       type="text/css">
   .ColorScheme-Text { color:#eeeeec; } .ColorScheme-Highlight { color:#367bf0; } .ColorScheme-NeutralText { color:#ffcc44; } .ColorScheme-PositiveText { color:#3db47e; } .ColorScheme-NegativeText { color:#dd4747; }
  </style>
  </defs>
  <g
     transform="translate(4,4)"
     id="g7">
    <path
       style="fill:currentColor"
       class="ColorScheme-Text"
       d="m 9,2 v 2 h 3 v 3 h 2 V 3 C 14,3 14,2 13,2 Z M 2,9 v 4 c 0,0 0,1 1,1 H 7 V 12 H 4 V 9 Z m 8,-1 v 3 H 8.8192462 v 0 l -0.1178145,0.701432 1.8724413,1.872441 0.741099,0.111155 v 0 l 2.07316,-2.07316 L 13.218652,11 v 0 H 12 V 8 Z M 2,2 V 8 H 8 V 2 Z"
       id="path5"
       sodipodi:nodetypes="ccccccscccscccccccccccccccccccccccc" />
  </g>
</svg>

<svg xmlns="http://www.w3.org/2000/svg" width="24" height="24" version="1.1">
 <defs>
  <style id="current-color-scheme" type="text/css">
   .ColorScheme-Text { color:#eeeeec; } .ColorScheme-Highlight { color:#367bf0; } .ColorScheme-NeutralText { color:#ffcc44; } .ColorScheme-PositiveText { color:#3db47e; } .ColorScheme-NegativeText { color:#dd4747; }
  </style>
 </defs>
 <g transform="translate(4,4)">
  <path style="fill:currentColor" class="ColorScheme-Text" d="M 9,2 V 4 H 12 V 7 H 14 V 3 C 14,3 14,2 13,2 Z M 2,9 V 13 C 2,13 2,14 3,14 H 7 V 12 H 4 V 9 Z M 10,8 V 11 H 8 L 11,14 14,11 H 12 V 8 Z M 2,2 V 8 H 8 V 2 Z"/>
 </g>
</svg>
